icons/vue-config.svg

<svg xmlns="http://www.w3.org/2000/svg" viewBox="0 0 32 32">
  <path mit-no-recolor="true" d="M15,2H6A2.00587,2.00587,0,0,0,4,4V26a2.00591,2.00591,0,0,0,2,2H22a2,2,0,0,0,2-2V11Zm3,22H6V22H18Zm0-4H6V18H18Zm0-4H6V14H18Zm-4-4V4l8,8Z" style="fill: #757575"/>
  <g>
    <path d="M14,16.0008l8,14.0926,8-14.02462V16H26.8898L22.047,24.49075,17.22461,16.0008Z" style="fill: #41b883"/>
    <path d="M17.22539,16.0008l4.82084,8.49155L26.8898,16.0008H23.97238l-1.90656,3.34239L20.16632,16Z" style="fill: #35495e"/>
  </g>
</svg>

<svg xmlns="http://www.w3.org/2000/svg" viewBox="0 0 32 32"><path fill="#757575" d="M15 2H6a2.006 2.006 0 0 0-2 2v22a2.006 2.006 0 0 0 2 2h16a2 2 0 0 0 2-2V11Zm3 22H6v-2h12Zm0-4H6v-2h12Zm0-4H6v-2h12Zm-4-4V4l8 8Z"/><path fill="#41b883" d="m14 16 8 14.093 8-14.024V16h-3.11l-4.843 8.49L17.225 16Z"/><path fill="#35495e" d="m17.225 16 4.821 8.492 4.844-8.491h-2.918l-1.906 3.342-1.9-3.343Z"/></svg>
